logo/giantswarm.svg

<?xml version="1.0" encoding="UTF-8" standalone="no"?>
<svg width="256px" height="229px" viewBox="0 0 256 229" version="1.1" xmlns="http://www.w3.org/2000/svg" preserveAspectRatio="xMidYMid">
    <defs>
        <linearGradient x1="49.9419399%" y1="100.039622%" x2="49.9419399%" y2="-0.0283139532%" id="linearGradient-1">
            <stop stop-color="#E14760" offset="0%"></stop>
            <stop stop-color="#FA8816" offset="100%"></stop>
        </linearGradient>
    </defs>
    <g>
        <path d="M254.777001,80.1724585 L194.49313,3.04213594 C191.024743,-1.25205761 184.583452,-0.921735033 181.445388,3.53761981 L155.845388,40.038265 C147.752485,35.4137488 138.17313,32.9363295 128.263452,33.1014908 C117.527969,33.1014908 107.45313,35.7440714 99.0299041,40.3685875 L74.2557106,4.69374884 C71.117646,0.234394 64.5111944,-0.095928581 61.2079686,4.19826497 L0.75893636,81.3285875 C-1.718483,84.4666521 2.41054926,88.430523 5.38345249,85.7879424 L57.4092589,39.3776198 C58.8957106,38.0563295 61.3731299,38.2214908 62.6944202,39.7079424 L69.1357106,59.8576198 C39.5718396,67.1247166 17.605388,93.8808456 17.605388,125.591813 C17.7705493,161.101491 45.3524847,190.169878 80.201517,192.812459 C81.1924847,205.695039 88.4595815,219.733749 112.242807,228.156975 C114.224743,228.81762 115.711194,226.670523 114.555065,225.01891 C112.242807,221.880846 109.765388,217.586652 108.939582,212.962136 C114.555065,214.944071 120.500872,216.1002 126.942162,216.1002 C132.557646,216.1002 137.842807,215.109233 143.127969,213.45762 C142.302162,217.916975 139.824743,222.046007 137.677646,225.01891 C136.521517,226.670523 138.007969,228.81762 139.989904,228.156975 C163.938291,219.733749 172.031194,205.529878 173.517646,192.647297 C210.018291,191.656329 239.25184,161.596975 239.086678,124.931168 C238.921517,92.7247166 216.459582,65.9685875 186.400227,59.1969746 L193.006678,38.5518134 C194.327969,36.9002005 196.640227,36.7350392 198.29184,38.2214908 L250.317646,84.6318134 C253.125388,87.274394 257.25442,83.1453617 254.777001,80.1724585 L254.777001,80.1724585 Z" fill="url(#linearGradient-1)"></path>
        <ellipse fill="#FFFFFF" transform="translate(72.688244, 133.437855) rotate(58.444675) translate(-72.688244, -133.437855) " cx="72.6882436" cy="133.437855" rx="48.390257" ry="35.5082091"></ellipse>
        <path d="M58.6322581,154.747097 C58.6322581,154.747097 57.9716129,152.6 57.9716129,148.636129 C57.9716129,144.672258 58.6322581,142.690323 58.6322581,142.690323 L76.8,135.092903 L58.6322581,127.330323 C58.6322581,127.330323 57.9716129,125.183226 57.9716129,121.384516 C57.9716129,117.420645 58.6322581,115.43871 58.6322581,115.43871 L90.0129032,128.816774 C90.0129032,128.816774 90.6735484,131.129032 90.6735484,134.927742 C90.6735484,138.726452 90.0129032,141.369032 90.0129032,141.369032 L58.6322581,154.747097 L58.6322581,154.747097 Z" fill="#E54D42"></path>
        <ellipse fill="#FFFFFF" transform="translate(184.509737, 133.955999) rotate(-58.444675) translate(-184.509737, -133.955999) " cx="184.509737" cy="133.955999" rx="48.7205659" ry="36.1688269"></ellipse>
        <path d="M162.353548,141.534194 C162.353548,141.534194 161.692903,140.047742 161.692903,135.91871 C161.692903,131.789677 162.353548,130.303226 162.353548,130.303226 L203.974194,130.303226 C203.974194,130.303226 204.634839,131.789677 204.634839,135.91871 C204.634839,139.882581 203.974194,141.534194 203.974194,141.534194 L162.353548,141.534194 L162.353548,141.534194 Z" fill="#E54D42"></path>
    </g>
</svg>

<svg viewBox="0 0 256 229" xmlns="http://www.w3.org/2000/svg"><defs><linearGradient id="a" x1="49.941%" x2="49.941%" y1="100.039%" y2="-.029%"><stop offset="0%" stop-color="#E14760"/><stop offset="100%" stop-color="#FA8816"/></linearGradient></defs><path fill="url(#a)" d="M254.77 80.17L194.48 3.03c-3.47-4.3-9.91-3.97-13.05.49l-25.6 36.5c-8.1-4.63-17.68-7.11-27.59-6.94 -10.74 0-20.82 2.64-29.24 7.26L74.22 4.66C71.08.2 64.47-.13 61.17 4.16L.72 81.29c-2.48 3.13 1.65 7.1 4.62 4.45l52.02-46.42c1.48-1.33 3.96-1.16 5.28.33l6.44 20.14c-29.57 7.26-51.54 34.02-51.54 65.73 .16 35.5 27.74 64.57 62.59 67.22 .99 12.88 8.25 26.92 32.04 35.34 1.98.66 3.46-1.49 2.31-3.14 -2.32-3.14-4.79-7.44-5.62-12.06 5.61 1.98 11.56 3.13 18 3.13 5.61 0 10.9-1 16.18-2.65 -.83 4.45-3.31 8.58-5.46 11.56 -1.16 1.65.33 3.79 2.31 3.13 23.94-8.43 32.04-22.63 33.52-35.51 36.5-1 65.73-31.06 65.56-67.72 -.17-32.21-22.63-58.97-52.69-65.74l6.6-20.65c1.32-1.66 3.63-1.82 5.28-.34l52.02 46.41c2.8 2.64 6.93-1.49 4.45-4.46v0Z"/><path fill="#FFF" d="M72.68 97.92a48.39 35.5 0 1 0 0 71.01 48.39 35.5 0 1 0 0-71.02Z" transform="rotate(58.4447 72.6882 133.438)"/><path fill="#E54D42" d="M58.63 154.74s-.67-2.15-.67-6.12 .66-5.95.66-5.95l18.16-7.6 -18.17-7.77s-.67-2.15-.67-5.95c0-3.97.66-5.95.66-5.95l31.38 13.37s.66 2.31.66 6.11c0 3.79-.67 6.44-.67 6.44l-31.39 13.37v0Z"/><path fill="#FFF" d="M184.5 97.78a48.72 36.16 0 1 0 0 72.33 48.72 36.16 0 1 0 0-72.34Z" transform="rotate(-58.4447 184.51 133.956)"/><path fill="#E54D42" d="M162.35 141.53s-.67-1.49-.67-5.62 .66-5.62.66-5.62h41.62s.66 1.48.66 5.61c0 3.96-.67 5.61-.67 5.61h-41.63v0Z"/></svg>
